X:6343
T:Glenburnie Rant
T:Sma Coals for Nailers
M:C
L:1/8
K:EMin
% dorian/minor hexatonic, sharp D leading notes
e2|E2EF E2EF|DEFG AFDF|   E2EF E2B2|efe^d e2:|
B2|e2ef g2fe|defg afdf|[1 e2ef g2fe|efe^d e2:|
                       [2 g2ag f2gf|efe^d e2|]


